icon-themes/breeze_svg/cmd/32/showtwopages.svg

<svg viewBox="0 0 32 32" xmlns="http://www.w3.org/2000/svg"><path d="m2 4v1 22 1h1 12v-16-1l-7-7h-1-4zm15 0v1 22 1h13v-16-1l-7-7h-1zm-14 1h4v7h7v15h-11zm15 0h4v7h7v15h-11z" fill="#4d4d4d"/></svg>

<svg xmlns="http://www.w3.org/2000/svg" viewBox="0 0 32 32">
 <path 
     style="fill:#4d4d4d" 
     d="M 2 4 L 2 5 L 2 27 L 2 28 L 3 28 L 15 28 L 15 12 L 15 11 L 8 4 L 7 4 L 3 4 L 2 4 z M 17 4 L 17 5 L 17 27 L 17 28 L 30 28 L 30 12 L 30 11 L 23 4 L 22 4 L 17 4 z M 3 5 L 7 5 L 7 12 L 14 12 L 14 27 L 3 27 L 3 5 z M 18 5 L 22 5 L 22 12 L 29 12 L 29 27 L 18 27 L 18 5 z "
     />
</svg>
